_includes/icons/ios-design.svg

<svg fill="#666" height="50" viewBox="0 0 50 50" width="50" xmlns="http://www.w3.org/2000/svg"><path d="m9.9375.53125-.71875.6875-8 8-.6875.71875.6875.71875 15.625 15.625-12.53125 12.53125c-.128906.117188-.226562.269531-.28125.4375l-2 7.5c-.089844.34375.011719.707031.261719.957031s.613281.351563.957031.261719l7.5-2c.167969-.054687.320313-.152344.4375-.28125l34.5625-34.5625c-.003906.003906.8125-.8125.8125-.8125 1.902344-1.902344 1.898438-4.976562 0-6.875-1.902344-1.902344-4.972656-1.898437-6.875 0l-13.40625 13.40625-15.625-15.625zm0 2.84375 1.625 1.625-1.28125 1.28125 1.4375 1.4375 1.28125-1.28125 1.5625 1.5625-2.28125 2.28125 1.4375 1.4375 2.28125-2.28125 1.5625 1.5625-1.28125 1.28125 1.4375 1.4375 1.28125-1.28125 1.5625 1.5625-2.28125 2.28125 1.4375 1.4375 2.28125-2.28125 1.5625 1.5625-1.28125 1.28125 1.28125 1.28125-5.28125 5.28125-14.90625-14.90625zm30.34375 2.28125 4.0625 4.0625-34.375 34.375-4.0625-4.0625zm-6.28125 18.9375-.71875.6875-2 2 1.4375 1.4375 1.28125-1.28125 1.5625 1.5625-2.28125 2.28125 1.4375 1.4375 2.28125-2.28125 1.5625 1.5625-1.28125 1.28125 1.4375 1.4375 1.28125-1.28125 1.5625 1.5625-2.28125 2.28125 1.4375 1.4375 2.28125-2.28125 1.5625 1.5625-1.28125 1.28125 1.4375 1.4375 1.28125-1.28125.625.625-6.5625 6.5625-14.0625-14.03125-1.40625 1.40625 14.75 14.78125.71875.6875.71875-.6875 8-8 .6875-.71875-.6875-.71875z"/></svg>

<svg xmlns="http://www.w3.org/2000/svg" viewBox="0 0 50 50" width="50" height="50" fill="#666"><path d="M 9.9375 0.53125 L 9.21875 1.21875 L 1.21875 9.21875 L 0.53125 9.9375 L 1.21875 10.65625 L 16.84375 26.28125 L 4.3125 38.8125 C 4.183594 38.929688 4.085938 39.082031 4.03125 39.25 L 2.03125 46.75 C 1.941406 47.09375 2.042969 47.457031 2.292969 47.707031 C 2.542969 47.957031 2.90625 48.058594 3.25 47.96875 L 10.75 45.96875 C 10.917969 45.914063 11.070313 45.816406 11.1875 45.6875 L 45.75 11.125 C 45.746094 11.128906 46.5625 10.3125 46.5625 10.3125 C 48.464844 8.410156 48.460938 5.335938 46.5625 3.4375 C 44.660156 1.535156 41.589844 1.539063 39.6875 3.4375 L 26.28125 16.84375 L 10.65625 1.21875 Z M 9.9375 3.375 L 11.5625 5 L 10.28125 6.28125 L 11.71875 7.71875 L 13 6.4375 L 14.5625 8 L 12.28125 10.28125 L 13.71875 11.71875 L 16 9.4375 L 17.5625 11 L 16.28125 12.28125 L 17.71875 13.71875 L 19 12.4375 L 20.5625 14 L 18.28125 16.28125 L 19.71875 17.71875 L 22 15.4375 L 23.5625 17 L 22.28125 18.28125 L 23.5625 19.5625 L 18.28125 24.84375 L 3.375 9.9375 Z M 40.28125 5.65625 L 44.34375 9.71875 L 9.96875 44.09375 L 5.90625 40.03125 Z M 34 24.59375 L 33.28125 25.28125 L 31.28125 27.28125 L 32.71875 28.71875 L 34 27.4375 L 35.5625 29 L 33.28125 31.28125 L 34.71875 32.71875 L 37 30.4375 L 38.5625 32 L 37.28125 33.28125 L 38.71875 34.71875 L 40 33.4375 L 41.5625 35 L 39.28125 37.28125 L 40.71875 38.71875 L 43 36.4375 L 44.5625 38 L 43.28125 39.28125 L 44.71875 40.71875 L 46 39.4375 L 46.625 40.0625 L 40.0625 46.625 L 26 32.59375 L 24.59375 34 L 39.34375 48.78125 L 40.0625 49.46875 L 40.78125 48.78125 L 48.78125 40.78125 L 49.46875 40.0625 L 48.78125 39.34375 Z"/></svg>
